public/sitelogo.svg

<svg width="101" height="101" viewBox="0 0 101 101" fill="none" xmlns="http://www.w3.org/2000/svg">
<g clip-path="url(#clip0_1_8)">
<path d="M57.61 49.748C57.61 42.325 56.843 36.324 55.308 31.744C53.825 27.164 51.787 23.67 49.192 21.26C46.598 18.801 43.66 17.138 40.377 16.27C37.094 15.403 33.679 14.969 30.132 14.969H22.032V85.54H30.212C33.918 85.54 37.412 85.01 40.695 83.95C44.03 82.889 46.969 81.057 49.51 78.454C52.051 75.803 54.037 72.164 55.466 67.536C56.896 62.86 57.61 56.931 57.61 49.748ZM80.324 49.748C80.324 57.943 79.344 64.957 77.386 70.79C75.48 76.622 72.833 81.467 69.444 85.323C66.055 89.132 62.138 92.12 57.69 94.289C53.296 96.459 48.584 98.001 43.554 98.917C38.5444 99.7877 32.8646 99.5 28.5 99.5C24.1354 99.5 21.7009 99.5 15 99.5C9.5 99.5 4.34836 98.5787 3 97.5C0.499991 95.5 -0.00887193 90.827 -9.11951e-06 81.5C0.00942283 71.574 0.0679811 57.3446 -1.9595e-06 43.5C-0.0960602 23.938 -0.500006 6.78097 2.5 3.5C5.5 0.219034 10.2283 0.303768 15 0.219028C21.0314 0.111917 26.48 0.219005 26.48 0.219005C33.31 0.219005 39.928 0.893005 46.334 2.24301C52.741 3.54501 58.485 5.95501 63.568 9.47301C68.704 12.993 72.781 18.006 75.798 24.513C78.816 30.973 80.324 39.385 80.324 49.748Z" fill="#EEEEEE"/>
<path d="M73.586 17.602C79.304 17.602 84.149 18.29 88.12 19.663C89.9665 20.2841 91.7609 21.0416 93.4888 21.9279C96.6665 23.5578 97.0313 27.7438 94.6057 30.365V30.365C92.4849 32.6569 88.9878 32.8737 86.1715 31.5249C85.1817 31.0507 84.1612 30.6388 83.116 30.292C80.336 29.352 77.359 28.882 74.182 28.882C70.37 28.882 66.856 29.804 63.639 31.648C60.462 33.492 57.901 36.456 55.955 40.542C54.049 44.591 53.096 49.942 53.096 56.594C53.096 63.138 54.01 68.434 55.836 72.484C57.703 76.532 60.224 79.497 63.401 81.377C66.617 83.221 70.251 84.143 74.301 84.143C78.589 84.143 82.144 83.456 84.963 82.082C85.9529 81.5997 86.9084 81.1018 87.8295 80.5884C90.6166 79.0348 94.1881 79.423 96.2815 81.8313V81.8313C98.4949 84.3777 98.2642 88.2679 95.3873 90.0306C93.5666 91.1461 91.5613 92.1663 89.371 93.091C85.042 94.934 79.781 95.856 73.586 95.856C66.399 95.856 59.986 94.356 54.347 91.356C48.708 88.355 44.281 83.944 41.064 78.123C37.848 72.303 36.24 65.126 36.24 56.593C36.24 48.206 37.888 41.12 41.184 35.336C44.519 29.515 49.006 25.104 54.644 22.104C60.324 19.103 66.637 17.602 73.586 17.602Z" fill="#D0D0D0"/>
<path d="M52.09 23.661C58.543 20.027 62.102 19.661 71.085 17.602C74.905 23.398 76.021 25.678 77.134 29.719C67.205 28.961 63.244 30.358 57.292 37.43C56.135 31.92 55.59 28.849 52.09 23.661Z" fill="#EEEEEE" stroke="#EEEEEE"/>
</g>
<defs>
<clipPath id="clip0_1_8">
<rect width="101" height="101" rx="10" fill="white"/>
</clipPath>
</defs>
</svg>

<svg xmlns="http://www.w3.org/2000/svg" width="101" height="101" fill="none">
    <path fill="#EEE"
          d="M57.61 49.748c0-7.423-.767-13.424-2.302-18.004-1.483-4.58-3.521-8.074-6.116-10.484-2.594-2.459-5.532-4.122-8.815-4.99-3.283-.867-6.698-1.301-10.245-1.301h-8.1V85.54h8.18c3.706 0 7.2-.53 10.483-1.59 3.335-1.061 6.274-2.893 8.815-5.496 2.541-2.651 4.527-6.29 5.956-10.918 1.43-4.676 2.145-10.605 2.145-17.788zm22.714 0c0 8.195-.98 15.209-2.938 21.042-1.906 5.832-4.553 10.677-7.942 14.533-3.389 3.809-7.306 6.797-11.754 8.966-4.394 2.17-9.106 3.712-14.136 4.628a88.152 88.152 0 0 1-15.17 1.302H.272v-100H26.48c6.83 0 13.448.674 19.854 2.024 6.407 1.302 12.151 3.712 17.234 7.23 5.136 3.52 9.213 8.533 12.23 15.04 3.018 6.46 4.527 14.872 4.527 25.235z"/>
    <path fill="#D0D0D0"
          d="M73.586 17.602c5.718 0 10.563.688 14.534 2.061a39.025 39.025 0 0 1 11.019 5.803l-8.28 8.948a26.099 26.099 0 0 0-7.743-4.122c-2.78-.94-5.757-1.41-8.934-1.41-3.812 0-7.326.922-10.543 2.766-3.177 1.844-5.738 4.808-7.684 8.894-1.906 4.049-2.859 9.4-2.859 16.052 0 6.544.914 11.84 2.74 15.89 1.867 4.048 4.388 7.013 7.565 8.893 3.216 1.844 6.85 2.766 10.9 2.766 4.288 0 7.843-.687 10.662-2.061 2.82-1.374 5.36-2.874 7.624-4.501l7.684 8.84c-2.9 2.602-6.532 4.826-10.9 6.67-4.329 1.843-9.59 2.765-15.785 2.765-7.187 0-13.6-1.5-19.239-4.5-5.639-3.001-10.066-7.412-13.283-13.233-3.216-5.82-4.824-12.997-4.824-21.53 0-8.387 1.648-15.473 4.944-21.257 3.335-5.821 7.822-10.232 13.46-13.232 5.68-3.001 11.993-4.502 18.942-4.502z"/>
    <path fill="#EEE" stroke="#EEE"
          d="M52.09 23.661c6.453-3.634 10.012-4 18.995-6.059 3.82 5.796 4.936 8.076 6.049 12.117-9.929-.758-13.89.639-19.842 7.711-1.157-5.51-1.703-8.581-5.203-13.769z"/>
</svg>
